img/svg/ben-item2.svg

<svg width="80" height="80" viewBox="0 0 80 80" fill="none" xmlns="http://www.w3.org/2000/svg">
<circle cx="40.001" cy="39.9998" r="40" fill="#0079FD"/>
<path d="M50.0011 33.333H48.3344V29.9997C48.3344 25.3997 44.6011 21.6664 40.0011 21.6664C35.4011 21.6664 31.6677 25.3997 31.6677 29.9997V33.333H30.0011C28.1677 33.333 26.6677 34.833 26.6677 36.6664V53.333C26.6677 55.1664 28.1677 56.6664 30.0011 56.6664H50.0011C51.8344 56.6664 53.3344 55.1664 53.3344 53.333V36.6664C53.3344 34.833 51.8344 33.333 50.0011 33.333ZM40.0011 48.333C38.1677 48.333 36.6677 46.833 36.6677 44.9997C36.6677 43.1664 38.1677 41.6664 40.0011 41.6664C41.8344 41.6664 43.3344 43.1664 43.3344 44.9997C43.3344 46.833 41.8344 48.333 40.0011 48.333ZM45.1677 33.333H34.8344V29.9997C34.8344 27.1497 37.1511 24.833 40.0011 24.833C42.8511 24.833 45.1677 27.1497 45.1677 29.9997V33.333Z" fill="white"/>
</svg>

<svg width="80" height="80" viewBox="0 0 80 80" fill="none" xmlns="http://www.w3.org/2000/svg"><circle cx="40.001" cy="40" r="40" fill="#0079FD"/><path d="M50.001 33.333h-1.667V30c0-4.6-3.733-8.334-8.333-8.334A8.336 8.336 0 0031.668 30v3.333H30a3.343 3.343 0 00-3.333 3.333v16.667c0 1.833 1.5 3.333 3.333 3.333h20c1.833 0 3.333-1.5 3.333-3.333V36.666c0-1.833-1.5-3.333-3.333-3.333zm-10 15A3.343 3.343 0 0136.668 45c0-1.834 1.5-3.334 3.333-3.334 1.833 0 3.333 1.5 3.333 3.334 0 1.833-1.5 3.333-3.333 3.333zm5.167-15H34.834V30a5.171 5.171 0 015.167-5.167A5.171 5.171 0 0145.168 30v3.333z" fill="#fff"/></svg>
